X:383
T: Luoyang qiaoer meihua zhuang
N: C1418
O: China,Gansu, Wudu
S: I, 134]
R: Wuge, Yangge, Hanchuan]
M: 2/4
L: 1/32
K: F
d2c2d8c2d2 | g4e2d2c2d2A4 | c3de2g2e2d2c4 | d2c2A12 |
A2c2F2G2A4D4 | A4e4d4c2A2 | c2A2G8F2G2 | A12z4 |
A2c2A2G2A2c2F4 | G2F2D8
F2G2 | A4e4d4c2A2 | c2A2G8
F2G2 | A2c2A2G2c4F4 | G2F2D12 |
A4c4A2c2A2G2 | A4c4A2c2A2G2 | A2c2A2G2A2c2F4 | G2F2D12

@@@ Tune index: 6384
